docs/img/icons/twitter.svg

<svg width="24" height="24" viewBox="0 0 24 24" xmlns="http://www.w3.org/2000/svg">
<g>
<path d="M22.5 5.77233C21.7271 6.10027 20.8978 6.32267 20.0264 6.42196C20.9161 5.91181 21.5972 5.10263 21.92 4.1414C21.0854 4.61383 20.1642 4.95688 19.1826 5.14285C18.3966 4.33994 17.2785 3.83984 16.0384 3.83984C13.6593 3.83984 11.7303 5.68691 11.7303 7.9637C11.7303 8.2866 11.7683 8.60199 11.8418 8.90357C8.26201 8.73141 5.08768 7.08917 2.96314 4.59372C2.59176 5.20189 2.38049 5.91053 2.38049 6.66697C2.38049 8.09814 3.14161 9.36093 4.2964 10.0997C3.5904 10.0771 2.92639 9.89116 2.34508 9.58205V9.63357C2.34508 11.6314 3.83056 13.2988 5.80024 13.6783C5.43936 13.7713 5.05882 13.8228 4.66514 13.8228C4.38696 13.8228 4.11794 13.7964 3.85417 13.7461C4.40267 15.3859 5.99315 16.5783 7.87756 16.611C6.40388 17.7167 4.54573 18.3739 2.52749 18.3739C2.17976 18.3739 1.83724 18.3537 1.5 18.3173C3.40671 19.4896 5.67036 20.1732 8.10327 20.1732C16.028 20.1732 20.3597 13.8881 20.3597 8.43741L20.3453 7.90341C21.1917 7.32537 21.9239 6.59912 22.5 5.77233Z" />
</g>
</svg>

<svg width="24" height="24" xmlns="http://www.w3.org/2000/svg"><path d="M22.5 5.772a8.902 8.902 0 01-2.474.65 4.18 4.18 0 001.894-2.28 8.922 8.922 0 01-2.737 1 4.387 4.387 0 00-3.145-1.302c-2.379 0-4.308 1.847-4.308 4.124 0 .323.038.638.112.94-3.58-.173-6.754-1.815-8.879-4.31a3.962 3.962 0 00-.583 2.073c0 1.431.762 2.694 1.916 3.433a4.455 4.455 0 01-1.95-.518v.052c0 1.997 1.485 3.665 3.454 4.044-.36.093-.741.145-1.135.145a4.31 4.31 0 01-.81-.077c.548 1.64 2.138 2.832 4.023 2.865a8.89 8.89 0 01-5.35 1.763c-.348 0-.69-.02-1.028-.057a12.572 12.572 0 006.603 1.856c7.925 0 12.257-6.285 12.257-11.736l-.015-.534a8.412 8.412 0 002.155-2.13z"/></svg>
